flaticon/gastronomy/noodles.svg

<svg xmlns="http://www.w3.org/2000/svg" width="32" height="32" viewBox="0 0 24 24">
    <path d="M 10.738281 10.988281 C 6.648438 10.988281 0.5625 11.730469 0.5625 13.765625 L 0.5625 13.824219 C 0.5625 19.433594 5.128906 24 10.738281 24 C 16.351562 24 20.917969 19.433594 20.917969 13.824219 L 20.917969 13.765625 C 20.917969 11.730469 14.828125 10.988281 10.738281 10.988281 Z M 10.738281 11.835938 C 11.40625 11.835938 12.03125 11.851562 12.628906 11.878906 C 12.421875 11.976562 12.234375 12.121094 12.078125 12.3125 L 12.726562 12.851562 C 13.015625 12.503906 13.480469 12.503906 13.769531 12.851562 L 14.417969 12.3125 C 14.300781 12.171875 14.160156 12.058594 14.015625 11.96875 C 18 12.308594 20.070312 13.226562 20.070312 13.765625 C 20.070312 14.441406 16.867188 15.699219 10.738281 15.699219 C 7.253906 15.699219 4.71875 15.289062 3.175781 14.816406 C 3.457031 14.632812 3.808594 14.683594 4.042969 14.96875 L 4.695312 14.425781 C 4.386719 14.054688 3.96875 13.851562 3.523438 13.851562 C 3.074219 13.851562 2.660156 14.054688 2.351562 14.425781 L 2.558594 14.601562 C 1.800781 14.304688 1.410156 14 1.410156 13.765625 C 1.410156 13.09375 4.613281 11.835938 10.738281 11.835938 Z M 10.738281 23.15625 C 5.996094 23.15625 2.070312 19.59375 1.484375 15.003906 C 3.34375 16.113281 7.621094 16.542969 10.738281 16.542969 C 13.859375 16.542969 18.136719 16.113281 19.992188 15.003906 C 19.410156 19.59375 15.484375 23.15625 10.738281 23.15625 Z M 10.738281 23.15625"/>
    <path d="M12.921875 14.851562L13.574219 15.390625C13.863281 15.042969 14.324219 15.042969 14.613281 15.390625L15.265625 14.851562C14.957031 14.480469 14.542969 14.273438 14.09375 14.273438 13.644531 14.273438 13.230469 14.480469 12.921875 14.851562zM15.460938 14.425781L16.109375 14.96875C16.398438 14.617188 16.863281 14.617188 17.152344 14.96875L17.800781 14.425781C17.492188 14.054688 17.078125 13.851562 16.628906 13.851562 16.183594 13.851562 15.765625 14.054688 15.460938 14.425781zM18.84375 14.121094L19.492188 13.582031C19.183594 13.210938 18.769531 13.007812 18.320312 13.007812 17.875 13.007812 17.457031 13.210938 17.152344 13.582031L17.800781 14.121094C18.089844 13.773438 18.554688 13.773438 18.84375 14.121094zM16.304688 13.699219L16.957031 13.160156C16.648438 12.789062 16.234375 12.582031 15.785156 12.582031 15.335938 12.582031 14.921875 12.789062 14.613281 13.160156L15.265625 13.699219C15.554688 13.351562 16.015625 13.351562 16.304688 13.699219zM13.769531 14.121094L14.417969 13.582031C14.109375 13.210938 13.695312 13.007812 13.246094 13.007812 12.800781 13.007812 12.382812 13.210938 12.078125 13.582031L12.726562 14.121094C13.015625 13.773438 13.480469 13.773438 13.769531 14.121094zM11.230469 13.699219L11.882812 13.160156C11.574219 12.789062 11.160156 12.582031 10.710938 12.582031 10.261719 12.582031 9.847656 12.789062 9.539062 13.160156L10.191406 13.699219C10.480469 13.351562 10.941406 13.351562 11.230469 13.699219zM9.960938 14.851562L10.613281 15.390625C10.902344 15.042969 11.367188 15.042969 11.652344 15.390625L12.304688 14.851562C11.996094 14.480469 11.582031 14.273438 11.132812 14.273438 10.6875 14.273438 10.269531 14.480469 9.960938 14.851562zM7.425781 14.851562L8.078125 15.390625C8.367188 15.042969 8.828125 15.042969 9.117188 15.390625L9.769531 14.851562C9.460938 14.480469 9.042969 14.273438 8.597656 14.273438 8.148438 14.273438 7.734375 14.480469 7.425781 14.851562zM5.960938 14.96875C6.25 14.617188 6.714844 14.617188 7.003906 14.96875L7.652344 14.425781C7.347656 14.054688 6.929688 13.851562 6.484375 13.851562 6.035156 13.851562 5.617188 14.054688 5.3125 14.425781zM8.269531 13.699219L8.921875 13.160156C8.613281 12.789062 8.199219 12.582031 7.75 12.582031 7.304688 12.582031 6.886719 12.789062 6.578125 13.160156L7.230469 13.699219C7.519531 13.351562 7.984375 13.351562 8.269531 13.699219zM4.890625 13.699219L5.539062 13.160156C5.230469 12.789062 4.816406 12.582031 4.367188 12.582031 3.921875 12.582031 3.503906 12.789062 3.195312 13.160156L3.847656 13.699219C4.136719 13.351562 4.601562 13.351562 4.890625 13.699219zM13.558594 3.261719C13.460938 3.027344 13.308594 2.808594 13.09375 2.628906 13 2.550781 12.929688 2.457031 12.882812 2.359375L23.035156.835938 22.910156 0 13.007812 1.484375 12.554688.9375C12.324219 1.128906 12.164062 1.367188 12.074219 1.625L11.257812 1.746094C11.300781 1.691406 11.34375 1.636719 11.402344 1.589844L10.863281.9375C10.554688 1.195312 10.371094 1.527344 10.3125 1.890625L9.453125 2.019531C9.480469 1.859375 9.566406 1.710938 9.710938 1.589844L9.171875.9375C8.800781 1.246094 8.597656 1.664062 8.597656 2.109375 8.597656 2.121094 8.601562 2.132812 8.601562 2.148438L7.777344 2.269531C7.761719 2.21875 7.75 2.164062 7.75 2.109375 7.75 1.917969 7.847656 1.734375 8.019531 1.589844L7.480469.9375C7.109375 1.246094 6.90625 1.664062 6.90625 2.109375 6.90625 2.207031 6.917969 2.300781 6.9375 2.394531L5.996094 2.535156 6.058594 2.957031 6.019531 3.375 7.6875 3.539062C7.726562 3.621094 7.75 3.710938 7.75 3.800781 7.75 3.992188 7.65625 4.175781 7.480469 4.320312 7.109375 4.628906 6.90625 5.042969 6.90625 5.492188 6.90625 5.941406 7.109375 6.355469 7.480469 6.664062 7.65625 6.808594 7.75 6.992188 7.75 7.183594 7.75 7.375 7.65625 7.558594 7.480469 7.703125 7.109375 8.011719 6.90625 8.425781 6.90625 8.875 6.90625 9.324219 7.109375 9.738281 7.480469 10.046875L8.019531 9.394531C7.847656 9.25 7.75 9.066406 7.75 8.875 7.75 8.683594 7.847656 8.5 8.019531 8.355469 8.390625 8.046875 8.597656 7.632812 8.597656 7.183594 8.597656 6.734375 8.390625 6.320312 8.019531 6.011719 7.847656 5.867188 7.75 5.683594 7.75 5.492188 7.75 5.300781 7.847656 5.117188 8.019531 4.972656 8.390625 4.664062 8.597656 4.25 8.597656 3.800781 8.597656 3.742188 8.582031 3.683594 8.578125 3.625L9.429688 3.710938C9.433594 3.738281 9.441406 3.769531 9.441406 3.800781 9.441406 3.992188 9.347656 4.175781 9.171875 4.320312 8.800781 4.628906 8.597656 5.042969 8.597656 5.492188 8.597656 5.941406 8.800781 6.355469 9.171875 6.664062 9.347656 6.808594 9.441406 6.992188 9.441406 7.183594 9.441406 7.375 9.347656 7.558594 9.171875 7.703125 8.800781 8.011719 8.597656 8.425781 8.597656 8.875 8.597656 9.324219 8.800781 9.738281 9.171875 10.046875L9.710938 9.394531C9.539062 9.25 9.441406 9.066406 9.441406 8.875 9.441406 8.683594 9.539062 8.5 9.710938 8.355469 10.082031 8.046875 10.289062 7.632812 10.289062 7.183594 10.289062 6.738281 10.082031 6.320312 9.710938 6.011719 9.539062 5.867188 9.441406 5.683594 9.441406 5.492188 9.441406 5.300781 9.539062 5.117188 9.710938 4.972656 10.082031 4.664062 10.289062 4.25 10.289062 3.800781 10.289062 3.796875 10.285156 3.796875 10.285156 3.792969L11.125 3.875C11.101562 4.039062 11.015625 4.195312 10.863281 4.320312 10.492188 4.628906 10.289062 5.046875 10.289062 5.492188 10.289062 5.941406 10.492188 6.355469 10.863281 6.664062 11.039062 6.808594 11.132812 6.992188 11.132812 7.183594 11.132812 7.375 11.039062 7.558594 10.863281 7.703125 10.492188 8.011719 10.289062 8.429688 10.289062 8.875 10.289062 9.324219 10.492188 9.738281 10.863281 10.046875L11.402344 9.394531C11.230469 9.25 11.132812 9.066406 11.132812 8.875 11.132812 8.683594 11.230469 8.5 11.402344 8.355469 11.773438 8.046875 11.980469 7.632812 11.980469 7.183594 11.980469 6.738281 11.773438 6.320312 11.402344 6.011719 11.230469 5.867188 11.132812 5.683594 11.132812 5.492188 11.132812 5.300781 11.230469 5.117188 11.402344 4.972656 11.730469 4.703125 11.917969 4.34375 11.960938 3.957031L12.773438 4.035156C12.726562 4.140625 12.65625 4.238281 12.554688 4.324219 12.183594 4.628906 11.980469 5.046875 11.980469 5.492188 11.980469 5.941406 12.183594 6.355469 12.554688 6.664062 12.730469 6.808594 12.824219 6.992188 12.824219 7.183594 12.824219 7.375 12.730469 7.5625 12.554688 7.707031 12.183594 8.011719 11.980469 8.429688 11.980469 8.875 11.980469 9.324219 12.183594 9.738281 12.554688 10.046875L13.09375 9.398438C12.921875 9.253906 12.824219 9.066406 12.824219 8.878906 12.824219 8.6875 12.921875 8.5 13.09375 8.355469 13.464844 8.050781 13.671875 7.632812 13.671875 7.1875 13.671875 6.738281 13.464844 6.320312 13.09375 6.015625 12.921875 5.871094 12.824219 5.683594 12.824219 5.496094 12.824219 5.304688 12.921875 5.117188 13.09375 4.972656 13.375 4.742188 13.558594 4.445312 13.632812 4.121094L23.355469 5.070312 23.4375 4.226562zM12.429688 3.152344L11.785156 3.089844C11.6875 2.921875 11.566406 2.761719 11.402344 2.628906 11.386719 2.617188 11.375 2.601562 11.359375 2.585938L12.035156 2.484375C12.101562 2.734375 12.238281 2.957031 12.429688 3.152344zM9.890625 2.808594L10.429688 2.726562C10.46875 2.8125 10.523438 2.894531 10.578125 2.972656L9.980469 2.914062C9.953125 2.875 9.921875 2.84375 9.890625 2.808594zM9.890625 2.808594"/>
</svg>

<svg xmlns="http://www.w3.org/2000/svg" width="32" height="32" viewBox="0 0 24 24">
    <path d="M10.738 10.988c-4.09 0-10.175.742-10.175 2.778v.058C.563 19.434 5.128 24 10.738 24c5.614 0 10.18-4.566 10.18-10.176v-.058c0-2.036-6.09-2.778-10.18-2.778zm0 .848c.668 0 1.293.016 1.89.043a1.578 1.578 0 0 0-.55.434l.649.539c.289-.348.753-.348 1.043 0l.648-.54a1.666 1.666 0 0 0-.402-.343c3.984.34 6.054 1.258 6.054 1.797 0 .675-3.203 1.933-9.332 1.933-3.484 0-6.02-.41-7.562-.883.281-.183.633-.132.867.153l.652-.543c-.308-.371-.726-.574-1.172-.574-.449 0-.863.203-1.171.574l.207.176C1.8 14.305 1.41 14 1.41 13.766c0-.672 3.203-1.93 9.328-1.93zm0 11.32c-4.742 0-8.668-3.562-9.254-8.152 1.86 1.11 6.137 1.539 9.254 1.539 3.121 0 7.399-.43 9.254-1.54-.582 4.59-4.508 8.153-9.254 8.153zm0 0"/>
    <path d="M12.922 14.852l.652.539c.29-.348.75-.348 1.04 0l.652-.54c-.309-.37-.723-.578-1.172-.578-.45 0-.864.207-1.172.579zm0 0M15.46 14.426l.65.543c.288-.352.753-.352 1.042 0l.649-.543c-.309-.371-.723-.574-1.172-.574-.445 0-.863.203-1.168.574zm0 0M18.844 14.121l.648-.539c-.308-.371-.722-.574-1.172-.574-.445 0-.863.203-1.168.574l.649.54c.289-.349.754-.349 1.043 0zm0 0M16.305 13.7l.652-.54c-.309-.37-.723-.578-1.172-.578-.45 0-.863.207-1.172.578l.653.54c.289-.348.75-.348 1.039 0zm0 0M13.77 14.121l.648-.539c-.309-.371-.723-.574-1.172-.574-.445 0-.863.203-1.168.574l.649.54c.289-.349.753-.349 1.043 0zm0 0M11.23 13.7l.653-.54c-.309-.37-.723-.578-1.172-.578-.45 0-.863.207-1.172.578l.652.54c.29-.348.75-.348 1.04 0zm0 0M9.96 14.852l.653.539c.29-.348.754-.348 1.04 0l.652-.54c-.309-.37-.723-.578-1.172-.578-.445 0-.863.207-1.172.579zm0 0M7.426 14.852l.652.539c.29-.348.75-.348 1.04 0l.652-.54c-.31-.37-.727-.578-1.172-.578-.45 0-.864.207-1.172.579zm0 0M5.96 14.969c.29-.352.755-.352 1.044 0l.648-.543a1.503 1.503 0 0 0-1.168-.574c-.449 0-.867.203-1.171.574zm0 0M8.27 13.7l.652-.54c-.309-.37-.723-.578-1.172-.578-.445 0-.863.207-1.172.578l.652.54c.29-.348.754-.348 1.04 0zm0 0M4.89 13.7l.65-.54c-.31-.37-.724-.578-1.173-.578-.445 0-.863.207-1.172.578l.653.54c.289-.348.754-.348 1.043 0zm0 0M13.559 3.262a1.643 1.643 0 0 0-.465-.633.806.806 0 0 1-.211-.27L23.035.836 22.91 0l-9.902 1.484-.453-.546c-.23.19-.39.43-.48.687l-.817.121a.903.903 0 0 1 .144-.156l-.539-.653a1.55 1.55 0 0 0-.55.954l-.86.129a.716.716 0 0 1 .258-.43L9.17.937c-.37.31-.573.727-.573 1.172 0 .012.004.024.004.04l-.825.12a.55.55 0 0 1-.027-.16c0-.191.098-.375.27-.52L7.48.939c-.37.308-.574.726-.574 1.171 0 .098.012.192.032.286l-.942.14.063.422-.04.418 1.668.164c.04.082.063.172.063.262 0 .191-.094.375-.27.52-.37.308-.574.722-.574 1.171 0 .45.203.863.574 1.172.176.145.27.328.27.52 0 .191-.094.375-.27.52-.37.308-.574.722-.574 1.171 0 .45.203.863.574 1.172l.54-.652c-.172-.145-.27-.329-.27-.52s.098-.375.27-.52c.37-.308.578-.722.578-1.171 0-.45-.207-.864-.578-1.172-.172-.145-.27-.328-.27-.52 0-.191.098-.375.27-.52.37-.308.578-.722.578-1.171 0-.059-.016-.117-.02-.176l.852.086c.004.027.011.059.011.09 0 .191-.093.375-.27.52-.37.308-.573.722-.573 1.171 0 .45.203.863.574 1.172.176.145.27.328.27.52 0 .191-.094.375-.27.52-.371.308-.574.722-.574 1.171 0 .45.203.863.574 1.172l.539-.652c-.172-.145-.27-.329-.27-.52s.098-.375.27-.52c.371-.308.578-.722.578-1.171 0-.446-.207-.864-.578-1.172-.172-.145-.27-.328-.27-.52 0-.191.098-.375.27-.52.371-.308.578-.722.578-1.171 0-.004-.004-.004-.004-.008l.84.082a.702.702 0 0 1-.262.445c-.37.309-.574.727-.574 1.172 0 .45.203.863.574 1.172.176.145.27.328.27.52 0 .191-.094.375-.27.52-.37.308-.574.726-.574 1.171 0 .45.203.863.574 1.172l.54-.652c-.173-.145-.27-.329-.27-.52s.097-.375.27-.52c.37-.308.577-.722.577-1.171 0-.446-.207-.864-.578-1.172-.172-.145-.27-.328-.27-.52 0-.191.098-.375.27-.52.328-.269.516-.628.559-1.015l.812.078a.8.8 0 0 1-.218.29 1.503 1.503 0 0 0-.575 1.167c0 .45.204.863.575 1.172.175.145.27.328.27.52a.682.682 0 0 1-.27.523 1.503 1.503 0 0 0-.575 1.168c0 .45.204.863.575 1.172l.539-.649c-.172-.144-.27-.332-.27-.52 0-.19.098-.378.27-.523.37-.304.578-.722.578-1.168 0-.449-.207-.867-.578-1.171-.172-.145-.27-.332-.27-.52 0-.191.098-.379.27-.523.281-.23.465-.528.539-.852l9.722.95.082-.844zm-1.13-.11l-.644-.062a1.64 1.64 0 0 0-.383-.461c-.015-.012-.027-.027-.043-.043l.676-.102c.067.25.203.473.395.668zM9.892 2.81l.539-.082c.039.086.093.168.148.246l-.598-.059c-.027-.039-.058-.07-.09-.105zm0 0"/>
</svg>
